!!!!SEGMENT: pl-cz--ii-87--001-007_zientarski-romuald-teodor--msza-swieta-offertorium.krn
!!!cenid: 18xx:1168
!!!COM: Zientarski, Romuald Teodor
!!!COM-rismID: pe30001080
!!!CDT: ~1830-1874
!!!CNT: Polish
!!!OPR: Msza Święta
!!!OTL: Offertorium
!!!OMV: 007
!!!PDT: 1888
!!!AGN: Sacred; Mass
!!!SMS-siglum: PL-CZ
!!!SMS-shelfmark: II-87
!!!SMS-shelfwork: 001-007 M
!!!SMS-variant:
!!!SMS-altvar:
!!!NIFC-rismSourceID: 300033223
!!!NIFC-rismChildID: 300033224
!!!NIFC-islandoraID: pl-cz:33881
!!!URL-pdf-islandora: https://repozytorium.nifc.pl/islandora/object/pl-cz%3A33881/datastream/PDF/view
!!!URL-scan:
!!!ONB-nifc: UWAGA: części Mszy: Kyrie, Gloria, Graduale, Credo, Et incarnatus, Et resurrexit,
!!!OMD: Moderato assai
!!!AIN: 1 organ 1 vox
!!!key: E-
**kern	**kern	**kern	**text	**dynam
*part2	*part2	*part1	*part1	*part1
*staff3	*staff2	*staff1	*staff1	*
*>[A,C,B]	*>[A,C,B]	*>[A,C,B]	*>[A,C,B]	*>[A,C,B]
*>A	*>A	*>A	*>A	*>A
*I"[Organo]	*	*I"[Voice]	*	*
*Iorgan	*	*Ivox	*	*
*ICklav	*	*ICvox	*	*
*IGacmp	*	*IGsolo	*	*
*clefF4	*clefG2	*clefG2	*	*
*k[b-e-a-]	*k[b-e-a-]	*k[b-e-a-]	*	*
*E-:	*E-:	*E-:	*	*
*M4/4	*M4/4	*M4/4	*	*
*met(c)	*met(c)	*met(c)	*	*
4r	8gL 8e-/	8g/L	Niech	.
.	8a-J 8f/	8a-/J	.	.
=1	=1	=1	=1	=1
*^	*^	*	*	*
2E- 2EE-/	2ryy	4b- 4g/	2ryy	4b-\	z_rę-	.
.	.	4g 4e-/	.	4g/	-ki	.
!LO:S:s=1:note:problem=note-level slur	!	!	!	!	!	!
(<4c/	[<2E-\	4ee-/	[2e-\	4ee-\	two-	.
8B-/L	.	8dd/L	.	8dd\	-jej	.
8A-/J)	.	[>8cc/J	.	8cc\	ka-	.
=2	=2	=2	=2	=2	=2	=2
2A-/	2E-\]	2cc/]	2e-\_<	2cc\	-pła-	.
8G/	8E-\	8b-/	8e-\]	8b-\	-nie	.
8r	8ryy	8r	8reyy	8r	.	.
(>8E-\L	4ryy	4b- 4g/	4reyy	4b-\	Bóg	.
8En\J)	.	.	.	.	.	.
=3	=3	=3	=3	=3	=3	=3
4F\	2ryy	4a- 4f/	2ryy	4a-/	przyj-	.
[<4BB-/	.	4f [<4d/	.	4f/	-mi	.
4A-/	2BB-\]	4cc/	4d\]	4cc\	swię-	.
8G/L	.	8b-/L	4ryy	8b-/	-tą	.
8F/J	.	8a-/J	.	8a-\	o-	.
=4	=4	=4	=4	=4	=4	=4
2F/	2BB-\	2a-/	2d\	2a-/	-fia-	.
8E-/	8E-\	8g/	8e-\	4g/	-rę	.
8r	8ryy	8r	8ryy	.	.	.
4r	4ryy	(<8gL 8e-/	4ryy	(<8g/L	A	.
.	.	8a-J 8f/)	.	8a-/J)	.	.
=5	=5	=5	=5	=5	=5	=5
2E- 2EE-/	2ryy	4b- 4g/	2ryy	4b-\	sło-	.
.	.	4g 4e-/	.	4g/	-wo	.
4c/	[<2E-\	4ee-/	[<2e-\	4ee-\	Cia-	.
8B-/L	.	8dd/L	.	8dd\	-łem	.
8A-/J	.	[>8cc/J	.	8cc\	się	.
!!LO:LB:g=original
=6	=6	=6	=6	=6	=6	=6
!	!LO:TX:b:t=P:problem=brak zakończenia ligatury	!	!	!	!	!
2A-/	2E-\]	(>2cc/]	2e-\_<	2cc\	sta-	.
8G/	8E-\	8b-/)	8e-\]	8b-\	-nie	.
8r	8ryy	8r	8ryy	8r	.	.
4C/	4ryy	4ee-/	8g\L	4ee-\	I	.
.	.	.	8an\J	.	.	.
*v	*v	*	*	*	*	*
=7	=7	=7	=7	=7	=7
4.BB-/	4.dd/	4.b-\	4.dd\	cud	.
8D/	8b-/	8f\	8b-\	o-	.
4E-\	8dd/L	4g\	(>8dd\L	-ba-	.
.	8cc/J	.	8cc\J)	.	.
4F\	8b-/L	4e-\	8b-/	-czy	.
.	8an/J	.	8an/	przez	.
=8	=8	=8	=8	=8	=8
*^	*	*	*	*	*
(>2E-/	[<2BB-\	(>2cc/	[<2e-\	2cc\	wia-	.
4B-/)	4F 4BB-\]	4b-/)	4e-\]	4b-\	-rę	.
4r	4ryy	4r	4ryy	4r	.	.
=9	=9	=9	=9	=9	=9	=9
*>B	*>B	*>B	*>B	*>B	*>B	*>B
!	!	!	!	!LO:TX:a:t=2	!	!LO:HP:a
2B-\	(<4B-\	(>4b-\	(<2.b-\	4b-\	Na-	<
.	8A-\L	8dd/L	.	8dd\	-kar-	.
!	!	!	!	!	!	!LO:HP:a
.	8G\J	8ee-/J	.	8ee-\	-mi	[ >
2ryy	4D\	4ff/	.	4ff\	cia-	.
.	4BB-\)	4dd/)	4cc\)	8b-\	-łem	]
.	.	.	.	8b-\	ży-	.
=10	=10	=10	=10	=10	=10	=10
4.B-/	4.E-\	4.gg/	2g\	(>4.gg^\	-wo-	.
8Bn/	8D\	8ff/	.	8ff\	.	.
8c/	8C\	8ee-/	8g\	4ee-\)	-ta	.
8r	8ryy	8r	8ryy	.	.	.
!LO:TX:b:t=g:rj	!	!	!	!	!	!
4G 4GG^/	4ryy	4dd 4bn 4f/	4rcyy	4r	.	.
*v	*v	*	*	*	*	*
=11	=11	=11	=11	=11	=11
2A- 2AA-\	4cc/	2.e-\	4cc\	krwia	.
.	8ee-L 8cc/	.	8ee-\	swo-	.
.	8ccJ 8a-/	.	8cc\	-jej	.
4E-\	4b- 4g/	.	4b-\	łas-	.
4G\	4ee-/	4b- 4e-\	8ee-\	-ki	.
.	.	.	8ee-\	na-	.
!!LO:LB:g=original
=12	=12	=12	=12	=12	=12
*^	*	*	*	*	*
2F/	4FF\	(>2dd/	(>2a- (<2d\	2dd\	-po-	<
.	4BB-\	.	.	.	.	[ >]
4E-/	4EE-\	4ee-/)	4g) 4e-\)	4ee-\	-ie	.
4r	4rGGyy	4r	4ryy	4r	.	.
=13	=13	=13	=13	=13	=13	=13
*>C	*>C	*>C	*>C	*>C	*>C	*>C
!	!	!	!	!LO:TX:a:t=1:rj	!	!
1B-	4B-\	4b-/	2.b-\	4b-\	Gdzie	.
.	8A-\L	8dd/L	.	8dd\	chle-	.
.	8G\J	8ee-/J	.	8ee-\	-ba	.
.	4D\	4ff/	.	4ff\	wi-	.
.	4BB-/	4b-/	4a-\	8b-\	-na	.
.	.	.	.	8b-\	i-	.
=14	=14	=14	=14	=14	=14	=14
4.B-/	4.E-\	4.gg/	2g\	(>4.gg^\	-ſto-	.
8Bn/	8D\	8ff/	.	8ff\	.	.
8c/	8C\	8ee-/	8g\	4ee-\)	-ta	.
8r	8ryy	8r	8ryy	.	.	.
4G 4GG/	4ryy	4dd 4bn 4f/	4ryy	4r	.	.
=15	=15	=15	=15	=15	=15	=15
!	!	!	!LO:N:vis=2	!	!	!LO:DY:b
2A- 2AA-\	2ryy	4cc/	2.e-\	4cc/	Bóg	mf
.	.	8ee-L 8cc/	.	8ee-\	zni-	.
.	.	8ccJ 8a-/	.	8cc\	-dzie	.
[>2B-/	4.E-\	4b- 4g/	.	4b-\	ku	.
.	.	4g/	8e-\L	8g/	dzia-	.
.	8En\	.	8c#X\J	8g/	-twie	.
=16	=16	=16	=16	=16	=16	=16
*^	*^	*	*	*	*	*
2B-/]	4F\	4ryy	4ryy	(>(<4.f/	2ryy	(<4.f/	swo-	.
.	4BB-\	8rc	8rE	.	.	.	.	.
.	.	8ryy	8ryy	8a-/	.	8a-/	.	.
8B-/	8E-\	2ryy	2ryy	4g/))	4e-\	4g/)	-jej	.
8r	8G\L	.	.	.	.	.	.	.
!	!	!	!	!	!	!LO:TX:b:t=Nakarmi itd.	!	!
4r	8A-\	.	.	4r	4ryy	4r	.	.
.	8An\J	.	.	.	.	.	.	.
*v	*v	*v	*v	*	*	*	*	*
*	*v	*v	*	*	*
==	==	==	==	==
*-	*-	*-	*-	*-
!!!system-decoration: <s1>(s2,s3)
!!!RDF**kern: > = above
!!!RDF**kern: < = below
!!!ENC: Marcin Jachim
!!!END: 2020-11-07
!!!ENC: Andrzej Kubiczek
!!!END: 2021-11-14
!!!YEC: Copyright 2022 Narodowy Instytut Fryderyka Chopina (https://polishscores.org)
!!!YEM: License CC-BY-4.0 (https://creativecommons.org/licenses/by/4.0)
